Origami/16x16/apps/electrum-ltc.svg

<svg width="16" height="16" version="1.1" viewBox="0 0 16 16" xmlns="http://www.w3.org/2000/svg">
 <circle cx="8" cy="8" r="8" style="fill:#3399cc"/>
 <path d="m7.0507812 3l-1.0898437 4.7871094-1.7109375 0.2636718-0.25 1 1.7324219-0.2675781-0.7324219 3.2167969h3 4.25l0.699219-2h-4.4941409l0.3867188-1.6972656 1.9589841-0.3027344 0.25-1-1.9804685 0.3066406 0.9804685-4.3066406h-2.9999998z" style="fill:#ffffff"/>
</svg>

<svg xmlns="http://www.w3.org/2000/svg" width="16" height="16" version="1.1" viewBox="0 0 16 16">
 <circle style="fill:#3399cc" cx="8" cy="8" r="8"/>
 <path style="fill:#ffffff" d="M 7.0507812 3 L 5.9609375 7.7871094 L 4.25 8.0507812 L 4 9.0507812 L 5.7324219 8.7832031 L 5 12 L 8 12 L 12.25 12 L 12.949219 10 L 8.4550781 10 L 8.8417969 8.3027344 L 10.800781 8 L 11.050781 7 L 9.0703125 7.3066406 L 10.050781 3 L 7.0507812 3 z"/>
</svg>
